X: 10
T: Little Katie Taylor
C: Paddy Taylor
M: 4/4
L: 1/8
R: reel
K: D Major
BAF |:\
D2 FA GEAF | D2 FA d2 ef | geag fdcd | ABAG EFGE |
DFAF GEAF | D2 FA d2 ef | geag fdcd |[1 eddc dBAF :|[2 eddc d3 e ||
fdaf g2 ag | fdAF G2 Ag | fdcA GBEG | ABcA dcAg | 
fdfa geag | fdAF E2 Ag | fdcA GBEG | ABcA dcdg | 
fdAf geAg | fdAF GBAg | fdcA GEFG | A2 cA dcAF | 
DEFA G2 AF | D2 FA d2 ef | g2 ag f2 cd | e2 dc d |]
